X: 14632
T: Gan Ainm
R: reel
M: 4/4
K: Amajor
cee2 fcec|acec fBBd|cee2 acfc|ecdB BAAd|
cee=g fdd2|ecc2 fBB2|cee2 defe|ceBe cAA2||
c'aa2 faea|c'aa2 bc'd'a|c'aa2 faec|dfed cAA2|
c'aa2 faea|c'3a b3d'|c'aa2 faec|dfed cAA2||

